brandFactory_export/3.Masa/Documento error_3Masa.svg

<?xml version="1.0" encoding="UTF-8"?>
<svg width="24px" height="24px" viewBox="0 0 24 24" version="1.1" xmlns="http://www.w3.org/2000/svg" xmlns:xlink="http://www.w3.org/1999/xlink">
    <title>3.Masa/Documento error_3Masa</title>
    <g id="Symbols" stroke="none" stroke-width="1" fill="none" fill-rule="evenodd">
        <g id="3.Masa/Documento-error_3Masa" fill="#5CB615" fill-rule="nonzero">
            <path d="M18.7210084,6.78655462 L13.8436975,1.98991597 L13.8436975,4.11764706 C13.8436975,4.90756303 14.0991597,5.57647059 14.5831933,6.05042017 C15.0705882,6.53109244 15.7630252,6.78319328 16.5831933,6.78319328 L18.7210084,6.78319328 L18.7210084,6.78655462 Z M20.4352941,6.45042017 C20.6336134,6.64537815 20.7478992,6.91764706 20.7478992,7.19663866 L20.7478992,21.9663866 C20.7478992,22.8638655 19.9882353,23.6235294 19.087395,23.6235294 L4.6907563,23.6235294 C3.80672269,23.6235294 3.0302521,22.8504202 3.0302521,21.9663866 L3.0302521,1.65714286 C3.0302521,0.789915966 3.82016807,0 4.6907563,0 L13.4537815,0 C13.7260504,0 13.9815126,0.104201681 14.1764706,0.295798319 L20.4352941,6.45042017 Z M6.77478992,13.5798319 C6.91260504,13.7210084 7.09747899,13.7915966 7.2789916,13.7915966 C7.46386555,13.7915966 7.64537815,13.7210084 7.78319328,13.5798319 L8.71764706,12.6285714 L9.65210084,13.5798319 C9.79327731,13.7210084 9.97478992,13.7915966 10.1563025,13.7915966 C10.3378151,13.7915966 10.5193277,13.7210084 10.6605042,13.5798319 C10.9394958,13.297479 10.9394958,12.8369748 10.6605042,12.5546218 L9.72605042,11.6033613 L10.6605042,10.6521008 C10.9394958,10.3697479 10.9394958,9.9092437 10.6605042,9.62689076 C10.3815126,9.34453782 9.93109244,9.34453782 9.65210084,9.62689076 L8.71764706,10.5781513 L7.78319328,9.62689076 C7.50420168,9.34453782 7.05378151,9.34453782 6.77478992,9.62689076 C6.49579832,9.9092437 6.49579832,10.3697479 6.77478992,10.6521008 L7.7092437,11.6033613 L6.77478992,12.5546218 C6.49579832,12.8369748 6.49579832,13.297479 6.77478992,13.5798319 Z M17.1613445,9.62689076 C16.8823529,9.34453782 16.4319328,9.34453782 16.1529412,9.62689076 L15.2184874,10.5781513 L14.2840336,9.62689076 C14.005042,9.34453782 13.5546218,9.34453782 13.2756303,9.62689076 C12.9966387,9.9092437 12.9966387,10.3697479 13.2756303,10.6521008 L14.210084,11.6033613 L13.2756303,12.5546218 C12.9966387,12.8369748 12.9966387,13.297479 13.2756303,13.5798319 C13.4168067,13.7210084 13.5983193,13.7915966 13.7798319,13.7915966 C13.9647059,13.7915966 14.1462185,13.7210084 14.2840336,13.5798319 L15.2184874,12.6285714 L16.1529412,13.5798319 C16.2941176,13.7210084 16.4756303,13.7915966 16.6571429,13.7915966 C16.8386555,13.7915966 17.0235294,13.7210084 17.1613445,13.5798319 C17.4403361,13.297479 17.4403361,12.8369748 17.1613445,12.5546218 L16.2268908,11.6033613 L17.1613445,10.6521008 C17.4369748,10.3697479 17.4369748,9.9092437 17.1613445,9.62689076 Z M14.7109244,15.4655462 L14.5563025,15.4655462 C13.5277311,15.4722689 12.492437,16.1478992 12.492437,17.6605042 C12.492437,17.8756303 12.492437,18.3831933 11.8336134,18.3865546 L11.7294118,18.3865546 C11.0537815,18.3697479 11.0537815,17.8655462 11.0537815,17.6504202 C11.0537815,16.1747899 10.0151261,15.4890756 8.98319328,15.4655462 L8.82857143,15.4655462 C7.8,15.4722689 6.76470588,16.1478992 6.76470588,17.6436975 C6.76470588,18.0436975 7.08403361,18.3697479 7.47731092,18.3697479 C7.87058824,18.3697479 8.18991597,18.0436975 8.18991597,17.6436975 C8.18991597,17.4285714 8.18991597,16.9210084 8.8487395,16.9176471 L8.95294118,16.9176471 C9.62857143,16.9344538 9.62857143,17.4386555 9.62857143,17.6537815 C9.62857143,19.1294118 10.6672269,19.8151261 11.6991597,19.8386555 L11.8537815,19.8386555 C12.8823529,19.8319328 13.9176471,19.1563025 13.9176471,17.6436975 C13.9176471,17.4285714 13.9176471,16.9210084 14.5731092,16.9176471 L14.6773109,16.9176471 C15.3529412,16.9344538 15.3529412,17.4386555 15.3529412,17.6537815 C15.3529412,18.0537815 15.6722689,18.3798319 16.0655462,18.3798319 C16.4588235,18.3798319 16.7781594,18.0537815 16.7781594,17.6537815 C16.7815126,16.1747899 15.7394958,15.4890756 14.7109244,15.4655462 L14.7109244,15.4655462 Z" id="Documento-error_3Masa"></path>
        </g>
    </g>
</svg>

<svg width="24" height="24" viewBox="0 0 24 24" xmlns="http://www.w3.org/2000/svg"><path d="M18.721 6.787L13.844 1.99v2.128c0 .79.255 1.458.74 1.932.487.481 1.179.733 2 .733h2.137v.004zm1.714-.337c.199.195.313.468.313.747v14.77c0 .897-.76 1.657-1.66 1.657H4.69c-.884 0-1.66-.774-1.66-1.658V1.657C3.03.79 3.82 0 4.69 0h8.763c.272 0 .528.104.722.296l6.26 6.154zm-13.66 7.13a.705.705 0 001.008 0l.935-.951.934.95a.71.71 0 00.504.213.71.71 0 00.505-.212.733.733 0 000-1.025l-.935-.952.935-.95a.733.733 0 000-1.026.706.706 0 00-1.009 0l-.934.951-.935-.951a.706.706 0 00-1.008 0 .733.733 0 000 1.025l.934.951-.934.952a.733.733 0 000 1.025zM17.16 9.627a.706.706 0 00-1.008 0l-.935.951-.934-.951a.706.706 0 00-1.008 0 .733.733 0 000 1.025l.934.951-.934.952a.733.733 0 000 1.025.71.71 0 00.504.212.7.7 0 00.504-.212l.934-.951.935.95a.705.705 0 001.008 0 .733.733 0 000-1.024l-.934-.952.934-.95a.739.739 0 000-1.026zm-2.45 5.839h-.155c-1.028.006-2.064.682-2.064 2.195 0 .215 0 .722-.658.726h-.105c-.675-.017-.675-.521-.675-.737 0-1.475-1.039-2.16-2.07-2.184h-.155c-1.029.006-2.064.682-2.064 2.178 0 .4.319.726.712.726a.72.72 0 00.713-.726c0-.215 0-.723.659-.726h.104c.676.016.676.52.676.736 0 1.475 1.038 2.161 2.07 2.185h.155c1.028-.007 2.064-.683 2.064-2.195 0-.215 0-.723.655-.726h.104c.676.016.676.52.676.736 0 .4.32.726.713.726a.72.72 0 00.712-.726c.004-1.48-1.039-2.165-2.067-2.188z" fill="#5CB615" fill-rule="nonzero"/></svg>
